svgs/sharp-solid/tree-city.svg

<svg xmlns="http://www.w3.org/2000/svg" viewBox="0 0 640 512"><!--! Font Awesome Pro 6.6.0 by @fontawesome - https://fontawesome.com License - https://fontawesome.com/license (Commercial License) Copyright 2024 Fonticons, Inc. --><path d="M288 0L480 0l0 192 40 0 0-72 0-24 48 0 0 24 0 72 72 0 0 320-160 0-96 0-96 0L288 0zm64 64l0 64 64 0 0-64-64 0zm64 96l-64 0 0 64 64 0 0-64zm-64 96l0 64 64 0 0-64-64 0zm224 0l-64 0 0 64 64 0 0-64zm-64 96l0 64 64 0 0-64-64 0zM224 160c0 6-1 11-2 16c20 14 34 38 34 64l0 80-80 0-16 0 0 160 0 32-32 0-32 0 0-32 0-160-16 0L0 320l0-80c0-26 13-50 33-64c-1-5-1-10-1-16c0-53 42-96 96-96c53 0 96 43 96 96z"/></svg>

<svg xmlns="http://www.w3.org/2000/svg" viewBox="0 0 640 512"><!--! Font Awesome Pro 6.4.2 by @fontawesome - https://fontawesome.com License - https://fontawesome.com/license (Commercial License) Copyright 2023 Fonticons, Inc. --><path d="M288 0H480V192h40V120 96h48v24 72h72V512H480 384 288V0zm64 64v64h64V64H352zm64 96H352v64h64V160zm-64 96v64h64V256H352zm224 0H512v64h64V256zm-64 96v64h64V352H512zM224 160c0 6-1 11-2 16c20 14 34 38 34 64v80H176 160V480v32H128 96V480 320H80 0V240c0-26 13-50 33-64c-1-5-1-10-1-16c0-53 42-96 96-96c53 0 96 43 96 96z"/></svg>
